X:1005
%%stretchlast 1
T:June Clover
C:Joe Buchanan's Scottish Tome - Page 593.0-594.0
I:593 0
Z:Carl Allison
C:AKA Hesitation Waltz
R:Waltz
L:1/4
M:3/4
K:D
F G |S "D"A>^G A/G/ | "A7"A d e | "D"f>=f ^f/=f/ | "A7"^f e d |
"D"A2 d | "Em"e2 d | "A7"c3- | c c d |
"A7"e>^d e/d/ | "Em"e d B | "A7"c>^B c/B/ | c c d |
"Em"e2 d | "A7"c2 B | "D"A3- | A "A7"F G |
"D"A>^G A/G/ | "A7"A d e | "D"f =f ^f/^f/ | "A7"^f e d |
"D"A2 d | "Em"e2 d | "A7"c3- | c B A |
"A7"g>f g/f/ | g f e | "D"f =f ^f/^f/ | "Bm"^f e d |
"A7"c3- | c B c | "D"d3- | d2 :|
%%newpage
